X:1
T:Ahi, che s'acresce
T:Ahi, che s'acresce
T:Angelo Notari
T:Source :Musiche nuove 1,2 et 3 voci---London---W.Hole---1613. Editor : André Vierendeels (25/03/13).
C:Angelo Notari
%%score 1 2
L:1/8
Q:1/4=72
M:4/4
K:F
V:1 treble nm="Soprano" snm="S"
V:2 bass nm="MusicXML Part"
V:1
 d8 | _e6 GA | B6 c2 | A4 d4- | d2 cF G4 | A4 c4- | c2 GA B3 F | G4 FF c/B/A/G/ | %8
w: Ahi,|ahi che s'a-|cres- ce'in|me l'u-|* sa- t'ar- do-|re, men-|* tre fra ro- sa'e|ro- sa tu spi- * * *|
 FF/F/ d/c/B/A/ GG B2- | B2 cd A4 | G8 |: G/A/B/c/ d/c/A/B/ c4 | c6 AG | G4 G4 | z2 GG A4- | %15
w: * ri, tu spi- * * * * ri, au-|* r'a- mo- ro-|sa.|ma _ _ _ _ _ _ _ spi-|ri'Au- ra gra-|di- ta,|strug- gi pur|
 A2 GG ^G4 | A8 | z2 FF F4- | F2 ED E4 | D8 | z2 Ad c2 cc | c6 G2 | A6 F2 | G8 | G4 z2 c2- | %25
w: _ que- sto co-|re,|spe- gni pur|_ que- sta vi-|ta,|che sa- r'al tuo spi-|rar so-|a- v'e|gra-|to, dol-|
 c2 BA B4 | A4 z2 G2- | G2 FE F4 | E4 z2 E2 | F/G/A/F/ G/A/B/G/ A2 A2 | B/c/d/B/ c/d/_e/c/ d4- | %31
w: * ce l'in- cen-|dio, dol-|* ce l'in- cen-|dio, e'l|ce- * * * ner _ _ _ mio, e'l|ce- * * * ner _ _ _ mio|
 d2 c2 c4 | B8 | d/B/G/A/ B/c/d/B/ c/F/D/E/ F/G/A/B/ | cC/D/ E/F/G/A/ B/F/G/A/ B/A/d/c/ | A6 A2 | %36
w: _ be- a-|to,|e'l _ _ _ ce- * * * * * * * ner _ _ _|mio _ _ _ _ _ _ _ _ _ _ _ _ _ _|_ be-|
 A8 | G6 d2 | G3 G G z G/A/B/c/ | A3 A A2 AB | c2 c3 c B/4A/4B/4c/4 B/4c/4d/4B/4 | c6 d2 | %42
w: a-|to, s'a|l'ul- ti- mo so- * * *|spi- ro, Au- ra gen-|til, l'Au- ra gen- * * * * * * *|til, men-|
 B2 c2 A2 d/c/d/B/ | c/B/c/A/ d/c/d/B/ c4 | B4 z2 d2 | c/B/c/d/ c4 d/c/d/B/ | %46
w: tre tu spir' io _ _ _|spi- * * * * * * * *|ro, Au-|ra _ _ _ _ gen- * * *|
 G/A/B/G/ A/B/c/A/ B/c/d/B/ c/B/c/A/ | G/F/G/A/ B/A/c/B/ A4 | G8 :| %49
w: til _ _ _ men- * * * tre _ _ _ tu _ _ _|spir' _ _ _ io _ _ _ spi-|ro.|
V:2
 G,8 | C,8 | G,,4 _E,4 | D,4 B,,2 C,2 | D,4 _E,4 | D,4 A,,4 | C,4 G,,2 A,,2 | C,4 F,,4 | %8
 F,2 D,2 _E,2 D,C, | D,2 A,,G,, D,4 | G,,8 |: G,4 F,4- | F,2 A,,B,, C,4 | C,6 =B,,B,, | %14
 C,4 A,,2 A,,2 | B,,4 =B,,4 | A,,8 | z2 A,,2 B,,2 A,,G,, | A,,8 | D,8 | D,4 E,2 F,2 | F,4 E,4 | %22
 F,4 D,4 | C,8 | C,4 F,2 E,D, | E,2 F,4 E,2 | F,4 C,2 =B,,A,, | =B,,2 C,4 B,,2 | C,4 C,4 | %29
 A,,2 G,,2 F,,2 F,2 | D,2 C,2 B,,4 | _E,2 D,2 F,4 | B,,8 | B,,4 F,,4 | C,4 G,,4 | D,4 C,4 | D,8 | %37
 G,,8 | G,,4 G,,4 | D,6 D,G, | F,2 F,2 D,4 | C,4 F,2 D,2 | _E,2 C,2 D,2 B,,2 | F,4 F,,4 | %44
 B,,4 B,4 | F,6 D,2 | _E,2 F,2 G,2 A,,2 | B,,2 C,2 D,4 | G,,8 :| %49

